X:754
T:Nighean Dubh Nan Geala Chas
T:My Lovely Black Maiden
R:Reel
B:The Athole Collection
M:C|
L:1/8
K:G
e|g>ed>g BBG>B|d2ed B2Bd|gedg BBG>B|d2e>d BAA:|
|:B|dGdB dGdB|dGdB ceAe|dGBG dega|gedB BAA:|

